optimized/outline/academic-cap.svg

<svg xmlns="http://www.w3.org/2000/svg" fill="none" viewBox="0 0 24 24" stroke-width="2" stroke="currentColor" aria-hidden="true">
  <path d="M12 14L21 9L12 4L3 9L12 14Z"/>
  <path d="M12 14L18.1591 10.5783C18.7017 11.9466 19 13.4384 19 14.9999C19 15.7013 18.9398 16.3885 18.8244 17.0569C16.2143 17.3106 13.849 18.4006 12 20.0555C10.151 18.4006 7.78571 17.3106 5.17562 17.0569C5.06017 16.3885 5 15.7012 5 14.9999C5 13.4384 5.29824 11.9466 5.84088 10.5782L12 14Z"/>
  <path stroke-linecap="round" stroke-linejoin="round" d="M12 14L21 9L12 4L3 9L12 14ZM12 14L18.1591 10.5783C18.7017 11.9466 19 13.4384 19 14.9999C19 15.7013 18.9398 16.3885 18.8244 17.0569C16.2143 17.3106 13.849 18.4006 12 20.0555C10.151 18.4006 7.78571 17.3106 5.17562 17.0569C5.06017 16.3885 5 15.7012 5 14.9999C5 13.4384 5.29824 11.9466 5.84088 10.5782L12 14ZM8 19.9999V12.5L12 10.2778"/>
</svg>

<svg xmlns="http://www.w3.org/2000/svg" fill="none" viewBox="0 0 24 24" stroke-width="2" stroke="currentColor" aria-hidden="true">
  <path d="M12 14l9-5-9-5-9 5 9 5z"/>
  <path d="M12 14l6.16-3.422a12.083 12.083 0 01.665 6.479A11.952 11.952 0 0012 20.055a11.952 11.952 0 00-6.824-2.998 12.078 12.078 0 01.665-6.479L12 14z"/>
  <path stroke-linecap="round" stroke-linejoin="round" d="M12 14l9-5-9-5-9 5 9 5zm0 0l6.16-3.422a12.083 12.083 0 01.665 6.479A11.952 11.952 0 0012 20.055a11.952 11.952 0 00-6.824-2.998 12.078 12.078 0 01.665-6.479L12 14zm-4 6v-7.5l4-2.222"/>
</svg>
